assets/features/channel/southeast-asia/AmBank.svg

<svg width="80" height="80" viewBox="0 0 80 80" fill="none" xmlns="http://www.w3.org/2000/svg">
<rect width="80" height="80" rx="8" fill="#EF1C26"/>
<path d="M34.261 43.6113C33.2436 44.7902 31.7441 45.5404 30.084 45.5404C27.0316 45.5404 24.5682 43.0755 24.5682 40.0211C24.5682 36.9668 27.0494 34.5019 30.084 34.5019C33.1365 34.5019 35.5998 36.9668 35.5998 40.0211V54.0961H44.1502L44.1324 40.0926C44.1324 32.3227 37.849 26.0176 30.0662 26.0176C22.3012 26.0176 16 32.3049 16 40.0926C16 47.8624 22.3012 54.1676 30.0662 54.1676C31.5121 54.1676 32.9223 53.9532 34.2432 53.5424L34.261 43.6113Z" fill="#FEF100"/>
<path d="M48.0774 54.025C48.6843 54.1143 49.3091 54.15 49.9338 54.15C57.6988 54.15 64 47.8627 64 40.075C64 32.3052 57.7167 26 49.9338 26C46.5423 26 43.4184 27.2146 40.9729 29.2151L40.9908 29.2508C43.115 31.4121 44.5965 34.1806 45.1499 37.2707H45.1678C46.1317 35.6453 47.8989 34.5557 49.9338 34.5557C52.9863 34.5557 55.4496 37.0385 55.4496 40.075C55.4496 43.1293 52.9684 45.6121 49.9338 45.6121C49.2734 45.6121 48.6486 45.4871 48.0595 45.2906L48.0774 54.025Z" fill="#FEF100"/>
</svg>

<svg xmlns="http://www.w3.org/2000/svg" width="80" height="80" fill="none" viewBox="0 0 80 80"><rect width="80" height="80" fill="#ef1c26" rx="8"/><path fill="#fef100" d="M34.261 43.611a5.52 5.52 0 0 1-4.177 1.93 5.51 5.51 0 0 1-5.516-5.52 5.52 5.52 0 0 1 5.516-5.52 5.51 5.51 0 0 1 5.516 5.52v14.075h8.55l-.018-14.003c0-7.77-6.283-14.075-14.066-14.075C22.301 26.018 16 32.305 16 40.093c0 7.77 6.301 14.075 14.066 14.075a14 14 0 0 0 4.177-.626z"/><path fill="#fef100" d="M48.077 54.025c.607.09 1.232.125 1.857.125C57.699 54.15 64 47.863 64 40.075 64 32.305 57.717 26 49.934 26a14.13 14.13 0 0 0-8.961 3.215l.018.036a15.27 15.27 0 0 1 4.159 8.02h.018a5.53 5.53 0 0 1 4.766-2.715 5.52 5.52 0 0 1 5.516 5.519c0 3.054-2.482 5.537-5.516 5.537a5.9 5.9 0 0 1-1.874-.321z"/></svg>
